public/feb24.svg

<svg width="288" height="77" viewBox="0 0 288 77" fill="none" xmlns="http://www.w3.org/2000/svg">
<rect x="0.6" y="0.6" width="286.8" height="75.8" stroke="white" stroke-width="1.2" stroke-dasharray="13 13"/>
<path d="M95.6312 46V27.8182H107.279V30.5792H98.9249V35.5153H106.48V38.2763H98.9249V46H95.6312ZM114.174 46.2663C112.806 46.2663 111.626 45.9822 110.631 45.4141C109.643 44.84 108.882 44.0291 108.35 42.9815C107.817 41.928 107.551 40.6881 107.551 39.2617C107.551 37.859 107.817 36.628 108.35 35.5685C108.888 34.5032 109.64 33.6746 110.605 33.0827C111.569 32.485 112.703 32.1861 114.005 32.1861C114.845 32.1861 115.638 32.3222 116.384 32.5945C117.136 32.8608 117.799 33.2751 118.373 33.8374C118.953 34.3996 119.409 35.1158 119.74 35.9858C120.071 36.8499 120.237 37.8797 120.237 39.0753V40.0607H109.06V37.8945H117.157C117.151 37.279 117.017 36.7315 116.757 36.2521C116.497 35.7668 116.133 35.3851 115.665 35.1069C115.203 34.8287 114.665 34.6896 114.049 34.6896C113.392 34.6896 112.815 34.8494 112.318 35.169C111.821 35.4827 111.433 35.897 111.155 36.4119C110.883 36.9209 110.744 37.4802 110.738 38.0898V39.9808C110.738 40.7739 110.883 41.4545 111.173 42.0227C111.463 42.585 111.868 43.017 112.389 43.3189C112.91 43.6148 113.52 43.7628 114.218 43.7628C114.686 43.7628 115.109 43.6977 115.487 43.5675C115.866 43.4313 116.195 43.2331 116.473 42.9727C116.751 42.7122 116.961 42.3897 117.103 42.005L120.104 42.3423C119.915 43.1354 119.554 43.8279 119.021 44.4197C118.494 45.0057 117.819 45.4614 116.997 45.7869C116.174 46.1065 115.233 46.2663 114.174 46.2663ZM122.098 46V27.8182H125.312V34.6186H125.445C125.611 34.2872 125.844 33.935 126.146 33.5621C126.448 33.1834 126.857 32.8608 127.371 32.5945C127.886 32.3222 128.543 32.1861 129.342 32.1861C130.396 32.1861 131.346 32.4554 132.192 32.994C133.044 33.5266 133.719 34.3168 134.216 35.3643C134.719 36.406 134.971 37.6844 134.971 39.1996C134.971 40.697 134.725 41.9695 134.234 43.017C133.743 44.0646 133.074 44.8636 132.228 45.4141C131.381 45.9645 130.422 46.2397 129.351 46.2397C128.57 46.2397 127.922 46.1095 127.407 45.8491C126.892 45.5887 126.478 45.275 126.164 44.908C125.856 44.5352 125.617 44.183 125.445 43.8516H125.259V46H122.098ZM125.25 39.1818C125.25 40.0637 125.374 40.8361 125.623 41.4989C125.877 42.1618 126.241 42.6797 126.714 43.0526C127.194 43.4195 127.774 43.603 128.455 43.603C129.165 43.603 129.76 43.4136 130.239 43.0348C130.718 42.6501 131.079 42.1263 131.322 41.4634C131.571 40.7946 131.695 40.0341 131.695 39.1818C131.695 38.3355 131.574 37.5838 131.331 36.9268C131.088 36.2699 130.727 35.755 130.248 35.3821C129.768 35.0092 129.171 34.8228 128.455 34.8228C127.768 34.8228 127.185 35.0033 126.706 35.3643C126.226 35.7254 125.862 36.2314 125.614 36.8825C125.371 37.5335 125.25 38.3 125.25 39.1818ZM141.869 46V43.6207L148.181 37.4329C148.785 36.8233 149.288 36.2817 149.69 35.8082C150.093 35.3348 150.394 34.8761 150.596 34.4322C150.797 33.9883 150.897 33.5148 150.897 33.0117C150.897 32.4376 150.767 31.9464 150.507 31.538C150.246 31.1237 149.888 30.8041 149.433 30.5792C148.977 30.3543 148.459 30.2418 147.879 30.2418C147.281 30.2418 146.757 30.3661 146.308 30.6147C145.858 30.8574 145.509 31.2036 145.26 31.6534C145.017 32.1032 144.896 32.6388 144.896 33.2603H141.762C141.762 32.1062 142.026 31.103 142.552 30.2507C143.079 29.3984 143.804 28.7385 144.727 28.271C145.657 27.8034 146.722 27.5696 147.923 27.5696C149.143 27.5696 150.214 27.7975 151.137 28.2532C152.06 28.7089 152.777 29.3333 153.286 30.1264C153.801 30.9195 154.058 31.825 154.058 32.843C154.058 33.5237 153.928 34.1925 153.667 34.8494C153.407 35.5064 152.948 36.2344 152.291 37.0334C151.64 37.8324 150.726 38.8001 149.548 39.9364L146.414 43.1236V43.2479H154.333V46H141.869ZM155.677 42.6264V40.0075L163.392 27.8182H165.576V31.5469H164.244L159.051 39.7766V39.9187H169.819V42.6264H155.677ZM164.351 46V41.8274L164.386 40.6555V27.8182H167.493V46H164.351ZM178.501 32.3636V34.8494H170.661V32.3636H178.501ZM172.597 29.0966H175.811V41.8984C175.811 42.3305 175.876 42.6619 176.006 42.8928C176.142 43.1177 176.32 43.2715 176.539 43.3544C176.758 43.4373 177 43.4787 177.267 43.4787C177.468 43.4787 177.651 43.4639 177.817 43.4343C177.989 43.4047 178.119 43.3781 178.208 43.3544L178.749 45.8668C178.578 45.926 178.332 45.9911 178.012 46.0621C177.699 46.1332 177.314 46.1746 176.858 46.1864C176.053 46.2101 175.328 46.0888 174.683 45.8224C174.038 45.5502 173.526 45.13 173.147 44.5618C172.774 43.9936 172.591 43.2834 172.597 42.4311V29.0966ZM183.695 38.0099V46H180.481V27.8182H183.624V34.6808H183.784C184.104 33.9113 184.598 33.3047 185.267 32.8608C185.941 32.411 186.799 32.1861 187.841 32.1861C188.788 32.1861 189.614 32.3844 190.318 32.7809C191.022 33.1774 191.567 33.7575 191.952 34.521C192.342 35.2844 192.537 36.2166 192.537 37.3175V46H189.324V37.8146C189.324 36.8973 189.087 36.1841 188.613 35.6751C188.146 35.1602 187.489 34.9027 186.643 34.9027C186.074 34.9027 185.565 35.027 185.116 35.2756C184.672 35.5182 184.323 35.8704 184.068 36.332C183.819 36.7937 183.695 37.353 183.695 38.0099Z" fill="white"/>
</svg>

<?xml version="1.0" encoding="UTF-8"?>
<svg id="Layer_1" data-name="Layer 1" xmlns="http://www.w3.org/2000/svg" viewBox="0 0 288 77">
  <defs>
    <style>
      .cls-1 {
        fill: #fff;
      }

      .cls-2 {
        stroke-dasharray: 12.56 12.56;
      }

      .cls-2, .cls-3, .cls-4 {
        fill: none;
        stroke: #fff;
        stroke-width: 1.2px;
      }

      .cls-4 {
        stroke-dasharray: 13.04 13.04;
      }
    </style>
  </defs>
  <g>
    <polyline class="cls-3" points=".6 7.1 .6 .6 7.1 .6"/>
    <line class="cls-4" x1="20.14" y1=".6" x2="274.38" y2=".6"/>
    <polyline class="cls-3" points="280.9 .6 287.4 .6 287.4 7.1"/>
    <line class="cls-2" x1="287.4" y1="19.66" x2="287.4" y2="63.62"/>
    <polyline class="cls-3" points="287.4 69.9 287.4 76.4 280.9 76.4"/>
    <line class="cls-4" x1="267.86" y1="76.4" x2="13.62" y2="76.4"/>
    <polyline class="cls-3" points="7.1 76.4 .6 76.4 .6 69.9"/>
    <line class="cls-2" x1=".6" y1="57.34" x2=".6" y2="13.38"/>
  </g>
  <path class="cls-1" d="M95.63,46v-18.18h11.65v2.76h-8.35v4.94h7.56v2.76h-7.56v7.72h-3.29ZM114.17,46.27c-1.37,0-2.55-.28-3.54-.85-.99-.57-1.75-1.39-2.28-2.43-.53-1.05-.8-2.29-.8-3.72s.27-2.63.8-3.69c.54-1.07,1.29-1.89,2.26-2.49.96-.6,2.1-.9,3.4-.9.84,0,1.63.14,2.38.41.75.27,1.42.68,1.99,1.24.58.56,1.04,1.28,1.37,2.15.33.86.5,1.89.5,3.09v.99h-11.18v-2.17h8.1c0-.62-.14-1.16-.4-1.64-.26-.49-.62-.87-1.09-1.15-.46-.28-1-.42-1.62-.42-.66,0-1.23.16-1.73.48-.5.31-.89.73-1.16,1.24-.27.51-.41,1.07-.42,1.68v1.89c0,.79.15,1.47.43,2.04.29.56.69.99,1.22,1.3.52.3,1.13.44,1.83.44.47,0,.89-.07,1.27-.2.38-.14.71-.33.99-.59.28-.26.49-.58.63-.97l3,.34c-.19.79-.55,1.49-1.08,2.08-.53.59-1.2,1.04-2.02,1.37-.82.32-1.76.48-2.82.48ZM122.1,46v-18.18h3.21v6.8h.13c.17-.33.4-.68.7-1.06.3-.38.71-.7,1.22-.97.51-.27,1.17-.41,1.97-.41,1.05,0,2,.27,2.85.81.85.53,1.53,1.32,2.02,2.37.5,1.04.75,2.32.75,3.84s-.25,2.77-.74,3.82c-.49,1.05-1.16,1.85-2.01,2.4-.85.55-1.81.83-2.88.83-.78,0-1.43-.13-1.94-.39-.51-.26-.93-.57-1.24-.94-.31-.37-.55-.73-.72-1.06h-.19v2.15h-3.16ZM125.25,39.18c0,.88.12,1.65.37,2.32.25.66.62,1.18,1.09,1.55.48.37,1.06.55,1.74.55s1.3-.19,1.78-.57c.48-.38.84-.91,1.08-1.57.25-.67.37-1.43.37-2.28s-.12-1.6-.36-2.26c-.24-.66-.6-1.17-1.08-1.54-.48-.37-1.08-.56-1.79-.56s-1.27.18-1.75.54c-.48.36-.84.87-1.09,1.52-.24.65-.36,1.42-.36,2.3ZM141.87,46v-2.38l6.31-6.19c.6-.61,1.11-1.15,1.51-1.62.4-.47.7-.93.91-1.38.2-.44.3-.92.3-1.42,0-.57-.13-1.07-.39-1.47-.26-.41-.62-.73-1.07-.96-.46-.22-.97-.34-1.55-.34s-1.12.12-1.57.37c-.45.24-.8.59-1.05,1.04-.24.45-.36.99-.36,1.61h-3.13c0-1.15.26-2.16.79-3.01.53-.85,1.25-1.51,2.18-1.98.93-.47,1.99-.7,3.2-.7s2.29.23,3.21.68c.92.46,1.64,1.08,2.15,1.87.51.79.77,1.7.77,2.72,0,.68-.13,1.35-.39,2.01-.26.66-.72,1.39-1.38,2.18-.65.8-1.57,1.77-2.74,2.9l-3.13,3.19v.12h7.92v2.75h-12.46ZM155.68,42.63v-2.62l7.71-12.19h2.18v3.73h-1.33l-5.19,8.23v.14h10.77v2.71h-14.14ZM164.35,46v-4.17l.04-1.17v-12.84h3.11v18.18h-3.14ZM178.5,32.36v2.49h-7.84v-2.49h7.84ZM172.6,29.1h3.21v12.8c0,.43.07.76.19.99.14.22.31.38.53.46s.46.12.73.12c.2,0,.38-.01.55-.04.17-.03.3-.06.39-.08l.54,2.51c-.17.06-.42.12-.74.2-.31.07-.7.11-1.15.12-.81.02-1.53-.1-2.18-.36-.65-.27-1.16-.69-1.54-1.26-.37-.57-.56-1.28-.55-2.13v-13.33ZM183.7,38.01v7.99h-3.21v-18.18h3.14v6.86h.16c.32-.77.81-1.38,1.48-1.82.67-.45,1.53-.67,2.57-.67.95,0,1.77.2,2.48.59.7.4,1.25.98,1.63,1.74.39.76.59,1.7.59,2.8v8.68h-3.21v-8.19c0-.92-.24-1.63-.71-2.14-.47-.51-1.12-.77-1.97-.77-.57,0-1.08.12-1.53.37-.44.24-.79.59-1.05,1.06-.25.46-.37,1.02-.37,1.68Z"/>
</svg>
